Papirus/22x22/apps/pureref.svg

<svg width="22" height="22" version="1.1" xmlns="http://www.w3.org/2000/svg">
 <g transform="translate(-1,-1)">
  <rect transform="matrix(0,-1,-1,0,0,0)" x="-22.000046" y="-22" width="20" height="20" rx=".99999994" ry=".99999994" style="fill:#8e8e8e"/>
  <path d="m11.5 4.4999933c-3.5898482 0-6.4999964 2.9101605-6.4999998 6.4999937v9.499993h3.9999995v-3.501959c0.7920192 0.330709 1.6416993 0.501355 2.5000003 0.501959 0.310571-0.0019 0.620611-0.02646 0.927733-0.07219l3.572267 3.572259 3-3-2.666016-2.666003c1.069981-1.190286 1.663199-2.733467 1.666015-4.333984-3e-6 -3.5898326-2.910151-6.4999931-6.499999-6.4999931z" style="opacity:.2"/>
  <path d="m11.5 3.9999996c-3.5898482 0-6.4999964 2.9101606-6.4999998 6.4999934v9.499994h3.9999995v-3.501959c0.7920192 0.330708 1.6416993 0.501354 2.5000003 0.501959 0.310571-0.0019 0.620611-0.02646 0.927733-0.07219l3.572267 3.572258 3-3-2.666016-2.666003c1.069981-1.190286 1.663199-2.733467 1.666015-4.333983-3e-6 -3.5898333-2.910151-6.4999938-6.499999-6.4999938z" style="fill:#dddddd"/>
  <path d="m3 1.999987c-0.554 0-1 0.4459842-1 0.9999874v0.5000315c0-0.5540032 0.446-1.0000252 1-1.0000252h17.999999c0.554 0 1.000001 0.446022 1.000001 1.0000252v-0.5000315c0-0.5540032-0.446001-0.9999874-1.000001-0.9999874z" style="fill:#ffffff;opacity:.1"/>
  <path d="m3 22.499993c-0.554 0-1-0.446022-1-0.999987v-0.500032c0 0.554003 0.446 1.000025 1 1.000025h17.999999c0.554 0 1.000001-0.446022 1.000001-1.000025v0.500032c0 0.553965-0.446001 0.999987-1.000001 0.999987z" style="opacity:.2"/>
  <path d="m11.5 4.999987c-3.0375686 0-5.5000033 2.4624377-5.4999999 5.500006v8.500006h1.9999997v-4.259792c0.9849415 0.813695 2.2224262 1.259112 3.5000002 1.259792 3.037568 0 5.500003-2.462437 5.499999-5.500006 4e-6 -3.0375683-2.462431-5.500006-5.499999-5.500006z" style="fill:#333333"/>
  <circle cx="11.5" cy="10.499985" r="3.5" style="fill:#fffff4"/>
  <path d="m6.009766 10.695281a5.4999998 5.4999998 0 0 0-0.00975 0.30463h0.027326a5.4999998 5.4999998 0 0 1-0.017576-0.30463zm10.980468 0.09751a5.4999998 5.4999998 0 0 1-5.490234 5.207208 5.4999998 5.4999998 0 0 1-3.5000002-1.259792v0.500032a5.4999998 5.4999998 0 0 0 3.5000002 1.259754 5.4999998 5.4999998 0 0 0 5.499999-5.500006 5.4999998 5.4999998 0 0 0-0.0098-0.207118zm-10.990234 8.207057v0.499994h1.9999997v-0.499994z" style="opacity:.2"/>
  <path d="m14.988281 10.724611a3.4999999 3.5 0 0 1-3.488281 3.275376 3.4999999 3.5 0 0 1-3.4882814-3.224617 3.4999999 3.5 0 0 0-0.011716 0.224504 3.4999999 3.5 0 0 0 3.5000004 3.499993 3.4999999 3.5 0 0 0 3.5-3.499993 3.4999999 3.5 0 0 0-0.01172-0.275528z" style="opacity:.2"/>
  <path d="m11.5 4.9999948c-3.0375684 0-5.5000033 2.4624315-5.4999999 5.5000002v0.5c-3.4e-6 -3.0375687 2.4624315-5.5000002 5.4999999-5.5000002 2.95318 0 5.354728 2.3293042 5.486328 5.2500002 0.0038-0.08346 0.01367-0.165612 0.01367-0.25 3e-6 -3.0375687-2.462432-5.5000002-5.5-5.5000002z" style="fill:#fffffb;opacity:.2"/>
 </g>
</svg>

<svg xmlns="http://www.w3.org/2000/svg" width="22" height="22" version="1.1">
 <g transform="translate(-1,-1)">
  <rect style="opacity:0.2" width="20" height="20" x="2" y="2.5" rx="1" ry="1"/>
  <rect style="fill:#8e8e8e" width="20" height="20" x="2" y="2" rx="1" ry="1"/>
  <path style="opacity:0.2" d="M 11.5,4.5 C 7.9102,4.5 5,7.4102 5,11 V 20.5 H 9 V 16.998 C 9.792,17.329 10.642,17.499 11.5,17.5 11.811,17.498 12.121,17.474 12.428,17.428 L 16,21 19,18 16.334,15.334 C 17.404,14.144 17.997,12.601 18,11 18,7.4102 15.09,4.5001 11.5,4.5001 Z"/>
  <path style="fill:#dddddd" d="M 11.5,4 C 7.9102,4 5,6.9102 5,10.5 V 20 H 9 V 16.498 C 9.792,16.829 10.642,16.999 11.5,17 11.811,16.998 12.121,16.974 12.428,16.928 L 16,20.5 19,17.5 16.334,14.834 C 17.404,13.644 17.997,12.101 18,10.5 18,6.9102 15.09,4.0001 11.5,4.0001 Z"/>
  <path style="opacity:0.2" d="M 11.5,5.5 C 8.4624,5.5 6,7.9624 6,11 V 19.5 H 8 V 15.24 C 8.9849,16.054 10.222,16.499 11.5,16.5 14.538,16.5 17,14.038 17,11 17,7.9624 14.538,5.5 11.5,5.5 Z"/>
  <path style="fill:#333333" d="M 11.5,5 C 8.4624,5 6,7.4624 6,10.5 V 19 H 8 V 14.74 C 8.9849,15.554 10.222,15.999 11.5,16 14.538,16 17,13.538 17,10.5 17,7.4624 14.538,5 11.5,5 Z"/>
  <circle style="opacity:0.2" cx="11.5" cy="11" r="3.5"/>
  <circle style="fill:#ffffff" cx="11.5" cy="10.5" r="3.5"/>
  <path style="opacity:0.2;fill:#ffffff" d="M 3,2 C 2.446,2 2,2.446 2,3 V 3.5 C 2,2.946 2.446,2.5 3,2.5 H 21 C 21.554,2.5 22,2.946 22,3.5 V 3 C 22,2.446 21.554,2 21,2 Z"/>
  <path style="opacity:0.1;fill:#ffffff" d="M 11.5,5 C 8.4624,5 6,7.4624 6,10.5 V 11 C 6,7.9624 8.4624,5.5 11.5,5.5 14.454,5.5 16.855,7.8293 16.986,10.75 16.99,10.667 17,10.584 17,10.5 17,7.4624 14.538,5 11.5,5 Z"/>
 </g>
</svg>
